images/about_icon-1.svg

<svg width="46" height="46" viewBox="0 0 46 46" fill="none" xmlns="http://www.w3.org/2000/svg">
<rect opacity="0.1" width="46" height="46" rx="5" fill="#FE753F"/>
<path d="M23.4999 18.9054C21.1557 18.9054 19.2487 20.8124 19.2487 23.1565C19.2487 25.5007 21.1557 27.4078 23.4999 27.4078C25.844 27.4078 27.7511 25.5007 27.7511 23.1565C27.7511 20.8124 25.844 18.9054 23.4999 18.9054ZM26.0239 22.3559L22.9784 25.4015C22.8505 25.5293 22.6828 25.5933 22.5153 25.5933C22.3478 25.5933 22.1803 25.5295 22.0525 25.4015L20.8886 24.2376C20.633 23.9821 20.633 23.5676 20.8886 23.3119C21.1442 23.0562 21.5587 23.0562 21.8143 23.3119L22.5153 24.0129L25.0982 21.4302C25.3537 21.1745 25.7682 21.1745 26.0239 21.4302C26.2796 21.6857 26.2796 22.1002 26.0239 22.3559Z" fill="#FE753F"/>
<path d="M32.9779 18.0539L32.9772 18.0365C32.9675 17.8222 32.961 17.5954 32.9571 17.3432C32.9389 16.1129 31.9609 15.0953 30.7305 15.0265C28.1652 14.8834 26.1807 14.0469 24.485 12.3941L24.4705 12.3803C23.9175 11.8732 23.0832 11.8732 22.5299 12.3803L22.5155 12.3941C20.8198 14.0469 18.8353 14.8834 16.27 15.0267C15.0397 15.0953 14.0616 16.1129 14.0434 17.3433C14.0397 17.5939 14.033 17.8206 14.0233 18.0365L14.0223 18.0768C13.9724 20.6927 13.9105 23.9483 14.9996 26.9033C15.5984 28.5283 16.5054 29.9409 17.6951 31.102C19.0501 32.4243 20.8249 33.4741 22.9702 34.2221C23.0399 34.2465 23.1125 34.2662 23.1863 34.281C23.2905 34.3018 23.3954 34.3122 23.5002 34.3122C23.6051 34.3122 23.7101 34.3018 23.8141 34.281C23.888 34.2662 23.9611 34.2463 24.0312 34.2218C26.1738 33.4724 27.9468 32.4221 29.3006 31.1C30.4898 29.9385 31.3968 28.5256 31.9962 26.9003C33.0894 23.9364 33.0276 20.6747 32.9779 18.0539ZM23.4999 28.7169C20.4338 28.7169 17.9394 26.2226 17.9394 23.1564C17.9394 20.0903 20.4338 17.5959 23.4999 17.5959C26.5659 17.5959 29.0604 20.0903 29.0604 23.1564C29.0604 26.2226 26.5659 28.7169 23.4999 28.7169Z" fill="#FE753F"/>
</svg>

<svg width="46" height="46" fill="none" xmlns="http://www.w3.org/2000/svg"><rect opacity=".1" width="46" height="46" rx="5" fill="#FE753F"/><path d="M23.5 18.905a4.256 4.256 0 00-4.251 4.252 4.256 4.256 0 004.25 4.25 4.256 4.256 0 004.252-4.25 4.256 4.256 0 00-4.251-4.252zm2.524 3.45l-3.046 3.046a.653.653 0 01-.926 0l-1.163-1.163a.655.655 0 01.925-.926l.701.7 2.583-2.582a.654.654 0 11.926.926z" fill="#FE753F"/><path d="M32.978 18.054v-.017c-.01-.215-.017-.442-.02-.694a2.365 2.365 0 00-2.227-2.316c-2.566-.144-4.55-.98-6.246-2.633l-.014-.014a1.428 1.428 0 00-1.941 0l-.015.014c-1.695 1.653-3.68 2.49-6.245 2.633a2.365 2.365 0 00-2.227 2.316c-.003.25-.01.478-.02.694v.04c-.05 2.616-.112 5.871.977 8.826.598 1.625 1.505 3.038 2.695 4.199 1.355 1.322 3.13 2.372 5.275 3.12a1.62 1.62 0 001.061 0c2.143-.75 3.916-1.8 5.27-3.122 1.189-1.162 2.096-2.574 2.695-4.2 1.093-2.964 1.032-6.225.982-8.846zM23.5 28.717a5.567 5.567 0 01-5.56-5.56 5.567 5.567 0 015.56-5.561 5.567 5.567 0 015.56 5.56 5.567 5.567 0 01-5.56 5.56z" fill="#FE753F"/></svg>
